X:491
T: Zhouzongli laidao zanzaiqu
N: C1910
O: China,Hebei Xingtai
S: IV, 13]
R: Xiaodiao, Shibeijiu]
M: 2/4
L: 1/16
K: E
c2f4dc | B2GFG2B2 | c2e2cBGF | G8 |
c2B4c2 | GBGFE2C2 | G2FGE2C2 | F8 |
G2FGB4 | c2fdc2B2 | F3GB2ce | GBGFE2C2 |
E3FG2B2 | G2FGE2C2 | G2FGF2D2 | C8

@@@ Tune index: 7046
